do
  bpm 78
  d1
    $ chunk 5 (si (rinse "2" "t"))
    $ chunk 3 (|+ note 2.8)
    $ chunk (choose [6,8,16]) ((ply 16).(|* sp 4))
    $ juxBy (rsin "-1" "1") (rev.press.(|* sp "-1"))
    $ while (slow 4 $ binary 125) (chop 3)
    $ si ((|* sp 4).(iter 5).(|* g 0.7).(# pan rand).(db "t").(# lp 1000 0.3))
    $ off "e" ((|* sp 2).(iter 3))
    $ n "<2.1 [4.3@q 0]> <1.4 [2.5 3.7*2] [5.2 6.9]>"
    # s "pluck"
    -- # rvb 0.3 0.4
    |* sp "h"
    -- # mu 1
    # shape 0.4
