d1 $ s "[[bd*2|bd] ~]*2"

d2 $ s "[~ sn:2]*2"

d3 $ s "hh(7,8)"

d4 $ every 2 (linger 0.5)
  $ s "cp(3,6)" |* g 0.8

all $ (jux (rev))
all $ (|* sp (sine/2 + 0.5)).(swing 4)

hush

queryArc (sp (sine/2 + 0.5)) (Arc 1 1)

hush
