


d1
  $ layer [
    (slice "8" "3 5 7 1")
    ,
    (|* speed 0.4).(slow 2)
    ,
    (|* speed 5.5).(euclid 7 8).(|* gain 0.6).(slow 4)
    ,
    (|* speed 7.9).(striateBy 16 0.99).(# gain 0.5)
  ]
  $ s "gtr:2"

all $ (# waveloss 20)

hush
