d1 $ every 4 (rev) $ every 8 (slow 8) $ stack [
  s "bd hh sn . sn:2*2 hh hh",
  s "metal metal metal"
  ]

d2 $ every 4 (fast 2) $ s "supersaw" # decay "[1 0.4]/2" # n "[c3 d3]" # pan (rand)

d3 $ every 4 (fast 2) $ s "supermandolin*12" # n "[c5 d5]"

d4 $ fastcat [
  sound (samples "casio casio:1*4" (run 4)),
  sound "future*8"
]

hush
