xfadeIn 1 1
  $ slow 2
  $ chop 16
  $ whenmod 8 4 (# n "c2 e2")
  $ n "c1 a1" # s "supersaw"
  # loop 16
  # orbit 1

xfadeIn 2 1
  $ juxBy 0.5 (rev)
  $ n (irand 8 * perlin)
  # s "industrial"
  # crush (slow 4 $ run 16)
  # gain 0.8
  # orbit 2
  # room 0.5
  # size (rand)

xfadeIn 2 2 $ silence

xfadeIn 3 2
  $ slow 2
  $ n "c7 a7"
  # s "supermandolin"
  # vowel "o o"

xfadeIn 3 2 $ silence

hush
