bpm(95)

do
  d1
    $ layer [
      id
      .(# hp 62 0.7)
      .(rarely (# rmod 0.9 12 0.6))
      ,
      (rarely (|* sp (4/3)))
      .(hurry "0.1")
      ,
      (hurry "<4 6 5>/10")
      .(|* g 0.64)
      .(|/ sp (5/4))
      .(jux (|* sp (9/8)))
    ]
    $ ply "<16 20 18>/16"
    $ slice "<32 30 29 31>/3" (repeatCycles 7 $ segment 28 $ irand 32)
    $ s "gtr:2"
    |* g 0.7
    # rvb 0.1 0.1
  d2
    $ every 2 (|* sp (4/3))
    $ every 3 (|* sp (5/4))
    $ slow 4
    $ stutWith 10 "1s" ((|* g 0.97).(|+ coarse 1).(|+ note (irand 5 - 2)))
    $ s "gtr:2"
    |* sp 10
    # pan (slow 4 (perlin))
    |* g 0.7
    # binshift (slow 8 $ sine)
    # del "h" "t" "t"


bpm(99)

do
  d1
    $ every 5 (rev)
    $ layer [
      id
      .(degBy 0.2)
      ,
      (hurry "0.2")
      .(# o 8)
      .(# hp 56 0.3)
      ,
      (hurry 5)
      .(|* g 0.45)
      .(degBy 0.9)
      .(stutWith 5 "3s" (
        (|* g 0.95).(|+ note (irand 4 - 3)).(# pan rand))
        .(# binshift (slow 9 $ cos))
      )
      -- .(# del "h" "t" "t")
      .(# pan (slow 8 $ perlin))
    ]
    $ slice 20 (repeatCycles 8 $ segment "<14 16 15 12>" $ irand 16)
    $ s "gtr"
    # rvb 0.2 0.2
    |* g 0.92
    # dis 0.4
  d2
    $ chunk 2 ((hurry 2).(slice 2 "1 0"))
    $ superimpose (
      (hurry 8)
      .(|* g 0.8)
      .(jux ((|* sp (4/3)).("e" ~>).(fast 2)))
      .(# del "h" "t" "t")
      .(# dis 0.2)
      .(rarely (|* sp (5/4)))
    )
    $ s "gtr:2/4"
    |* g 0.40
    # rvb 0.5 0.8

all $ (#waveloss 100)

hush


bpm(99)

do
  d1
    $ sp "[1 1.333?, [t|q|0.36666]/3]"
    # s "gtr"
    |* g 0.88
    # hp 56 0.7
    # rvb 0.7 0.5
  d2
    $ superimpose (
      (hurry 5)
      .(|* g 0.5)
      .(# pan (slow 8 perlin))
      .(# binshift (slow 6 $ cos))
    )
    $ slice 24 (repeatCycles 4 $ segment "<24 20 22 21>/8" $ irand 24)
    $ s "gtr:1"
    |* g 0.62
    # rvb 0.7 0.9
  d3
    $ superimpose (
      (hurry 8)
      .(# o 7)
      .(# pan (segment 1 $ choose [0,1]))
    )
    $ stutWith 6 "t" ((|* g 0.97).(|+ coarse 8))
    $ s "gtr:2/3"
    |* g 0.48
    |* sp "[q|t|e]"
    # rvb 0.9 0.9
    # dis 0.2
    # lp 1000 (range 0.1 0.4 $ slow 7 $ (sine+square)/2)

all $ ((#waveloss 99).(|* g 0.95))

hush

d1
  $ slow 2
  $ rarely (|* sp (8/9))
  $ superimpose (
    (slow 8)
    .(|* sp "0.014")
    .(# hp 56 0.3)
    .(|* g 0.9)
  )
  $ chunk 2 ((|* sp (4/5)).(|+ coarse 16))
  $ superimpose (
    (hurry "e")
    .(chunk 3 ((slow 2).(|+ coarse 4)))
    .(# del "0.7" "t" "t")
    .(# o 7)
  )
  $ superimpose (
    (hurry "h")
    .(degradeBy "t")
    .(jux ((|* sp "h").("4s" ~>)))
  )
  $ s "msg*32"
  # lp (range 800 1200 $ slow 8 $ cosine) 0.2
  # rvb 0.6 0.8
  # shape 0.4

bpm(99)

d1
  $ while "<f t>/8" (|* sp (4/5))
  $ superimpose (
    (hurry "[e|s]")
    .(stutWith 6 "t" (
      (|* g 0.95)
      .(|+ coarse 2)
      .(# pan rand))
    )
    .(# o 7)
  )
  $ chunk 3 (|* sp (8/9))
  $ superimpose (
    (hurry "[t|x]")
    .(jux ((|* sp "h").("t" <~).(slow 2)))
  )
  $ s "msg*16"
  # rvb 0.6 0.8
  # shape 0.3

hush


do
  -- d1
  --   $ superimpose (
  --       (hurry 4)
  --       .(|* g (0.8 * (fast 4 $ sine)))
  --       .(|* sp (range 0.9 1.1 $ rand))
  --   )
  --   $ superimpose (
  --     (hurry "2s")
  --     .(# o 8)
  --   )
  --   $ chop 4
  --   $ s "eleas:22*8"
  --   |* sp "[1 1.333 1.25]"
  --   # lp (range 1800 3000 $ slow 12 $ cosine) 0.1
  --   # rvb 0.3 0.5
  --   |* g 0
  -- d2
  --   $ superimpose (
  --     (slow 4)
  --     .(|* sp "h")
  --     .(# pan (segment 1 $ choose [0,1]))
  --   )
  --   $ every 3 (rev)
  --   $ sp "[1, ~ 8*3] 1 [2 3] 4"
  --   # s "eleas:18"
  --   |* g 0.4
  --   # binshift 0.5
  --   # rvb 0.3 0.5
  --   # del "t" "t" "t"
  -- d3
  --   $ every 3 ((slow 2).(stutWith 4 "3s" (|* g 0.95)))
  --   $ rarely (|* sp "1.25")
  --   $ every 5 (|* sp (1 + (5/4)))
  --   $ superimpose (
  --     (fast 8)
  --     .(chop 4)
  --     .(|* sp 2)
  --     .(|* g 0.8)
  --     .(# pan (slow 8 $ sine))
  --   )
  --   $ s "eleas:11*6"
  --   # rvb 0.3 0.5
  --   |+ note "[0 0 3!3 1]"
  d4
    $ chunk 3 (|* sp 1.333)
    $ superimpose ((hurry 3).(|* g 0.7).(#pan rand))
    $ superimpose ((hurry "0.1").(ply 1).(# hp 56 0.4))
    $ plyWith 5 (|+ coarse 4)
    $ slice "<8 9 6>" "4 2"
    $ s "eleas:21"
    |* g 0.9

all $ (# rvb 0.3 0.5).(# crush 0)


bpm(98)

do
  -- d1
  --   $ chop 2
  --   $ superimpose ((hurry "h").("h" ~>))
  --   $ superimpose (
  --     (striate 2)
  --     .(hurry 2)
  --     .("q" ~>)
  --     .(jux ((|* sp "-1").("[0|3s]" <~)))
  --   )
  --   $ sp "[1 1.333/3, [h|q]/2]"
  --   # s "gtr:0"
  --   # rvb 0.4 0.5
  --   # del "t" "t" "t"
  --   |* g 0.30
  d1 silence
  d2 silence
  -- d2
  --   $ rarely (|* sp (5/4))
  --   $ stutWith 3 "2s" ((|* g 0.95).(# coarse 8))
  --   $ almostNever (|* sp (4/3))
  --   $ superimpose ((hurry "e").(|* g 0.9))
  --   $ superimpose (
  --     (|* sp 4)
  --     .(ply 2)
  --     .(# pan (slow 8 cosine))
  --   )
  --   $ slice "<12!3 8>" (segment 12 $ irand 12)
  --   $ s "gtr:1"
  --   |* g 0.40
  --   # scram (slow 12 $ tri)
  -- d3
  --   $ chop 2
  --   $ chunk 3 (# coarse 4)
  --   $ superimpose ((hurry 4).(|* g 0.6).(fast 4).(# pan (slow 4 perlin)))
  --   $ sp "[1 1.333/3, [q/2] ~ 1.25/5]"
  --   # s "gtr:2"
    -- |* g 0.7

hush


all $ (#rvb 0.5 0.5)




bpm 98
let si = superimpose

do
  d1
    $ jux (chew "<3 5>" 8)
    $ si ((hurry 12).(|* g 0.6).(# pan (slow 12 $ tri)))
    $ superimpose ((hurry "h").("q" <~))
    $ s "eleas:18"
    |* sp "h"
    # loop 2
    |* g 0.8
    # coarse 120
    # hp 66 0.5
  d2 silence

once $ off "0.05" (# dis 0.2) $ s "eleav:22" |* g 0.8 # o 10

hush

all $ (#rvb 0.6 0.8)

15 (splice 16)


bpm 98

do
  d1
    $ jux (|* sp (5/4))
    $ si ((hurry 8).(|* g 0.9).(euclid 2 4).("h" ~>).(ply 2))
    $ si ((|+ note (segment 1 $ c [0, 48, 40, 36])).(|* sp "h").(# sustain 2).(slow 2).(|* g 0.88))
    $ s "eleas:2"
    |* g 0.95
    |* sp 0.6
    # shape 0.4
    # lpf (range 1000 2000 $ slow 8 $ cosine)
    # dis 0.2
    # waveloss (trigger 1 $ range 0 100 $ slow 20 $ envL)
  d2 silence

once $ off "0.05" ((# dis 0.2).(#pan rand)) $ s "eleav:33" |* g 0.8 # o 8


all $ (# rvb 0.4 0.5)
hush


bpm(98)

do
  d1 silence
    -- $ rarely (chop 2)
    -- $ chunk 3 ((rev).(|* sp "-1"))
    -- $ superimpose (
    --   (hurry "q")
    --   .(# lp 400 0.2)
    -- )
    -- $ superimpose (
    --   (hurry 4)
    --   .(|*g 0.7)
    --   .(|* sp (range 1.1 1.4 $ slow 7 sine))
    -- )
    -- $ slice 6 "3 0"
    -- $ s "eleas:7"
    -- |* sp "t"
    -- |* g 0.3
  d2 silence
    -- $ superimpose (
    --   (hurry 3)
    --   .(sometimesBy 0.15 (stut 6 "0.9" "x"))
    --   .(|* g 0.7).(# ac "-0.1")
    --   .(|* sp "1.1 1.05")
    -- )
    -- $ superimpose ((|* sp 8).("h" ~>).(|* g 0.7).(# coarse 8))
    -- $ sp "1 q/2"
    -- # s "eleas:5"
    -- |* g 0.5
  d1 silence
    -- $ every 4 (rev)
    -- $ splice 8 (segment 8 $ ri 8)
    -- $ chunk 3 (# crush 3)
    -- $ superimpose ((*| sp "4!6").(|* g 0.6).(#lp (range 800 5000 $ slow 4 $ cosine) 0.3))
    -- $ over (hurry "q")
    -- $ s "eleas:14"
    -- |* g 0.5
  d2 silence
    -- $ every 4 (iter 3)
    -- $ every 3 (linger "q")
    -- $ over ((hurry "4").(# pan (slow 8 $ sine)).(rarely (|+ note "-5")).(# coarse 4))
    -- $ jux (rev)
    -- $ chop 2
    -- $ sp "1 1*2"
    -- # s "eleas:17"
    -- # hp 66 0.5
    -- # shape 0.3
    -- # scram 0.2
    -- # end 0.4
    -- |* g 0.4
  d1 silence
    -- $ rarely (bite 2 5)
    -- $ foldEvery [3, 5] (slow 2)
    -- $ chunk 5 ((hurry 2).(# pan rand))
    -- $ chunk 2 (# coarse 16)
    -- $ chop 4
    -- $ over ((hurry 12).(|* g 0.6).(degradeBy "q").(rarely (|* sp "h")).(# pan (slow 4 perlin)))
    -- $ over (hurry "q")
    -- $ s "eleas:27"
    -- |* g 0.5
  d2 silence
    -- $ chop 4
    -- $ over ((hurry 8).(|* g 0.5))
    -- $ over (hurry "h")
    -- $ chew "<2!5 3!5>" 5
    -- $ juxBy (slow 4 $ (square*2-1)) ((|* sp (5/4)).(# dis 0.2))
    -- $ s "eleas:25"
    -- |* sp 1.33
    -- |* g 0.2
  d1 silence
  --   $ every 2 (linger "q")
  --   $ over ((hurry 4).(|* g 0.5).(#pan rand))
  --   $ over ((|* sp "2s").(|* g 0.9))
  --   $ sp "{1.25 [2 [1.5]]!2 ~ 4*5}%2"
  --   # s "eleas:24"
  --   # del "h" "t" "t"
  --   |* g 0.5
  d2 silence
    -- $ chew 3 5
    -- $ rarely (stut 6 "0.8" "e")
    -- $ jux ((|* sp "-4").(rev).("t" ~>).(fast 1.5))
    -- $ ply 2
    -- $ sp "[1 ~ 1.333,s*2]"
    -- # s "eleas:16"
    -- |* g 0.5
  d1 silence
    -- $ over ((hurry 8).(|* g 0.5).(#o 8).(#rvb 0.9 0.9))
    -- $ chunk 3 (over ((|* sp 1.333).("t" ~>).(# crush 2).(# pan rand)))
    -- $ ply 3
    -- $ slice 16 "6 7 3 2 14"
    -- $ s "eleas:20"
    -- |* g 0.5
  d2 $ silence
    -- $ chew 3 4
    -- $ superimpose (hurry "e")
    -- $ stutWith 5 "s" ((# pan sine).(|* sp 1.08))
    -- $ euclid 5 9
    -- $ s "eleas:11"
    -- # dis 0.5
    -- |* g 0.5
  d1
    $ over (
      (zoom (0.4,0.6))
      .(rand ~>)
      .(|+ note 48).(# shape 0.8).(# del "2t" "t" "t")
    )
    $ over ((#pan (slow 8 tri)).(hurry 4).(|* g 0.9).(#lpq (slow 8 $ sine/3)))
    $ s "eleas:2"
    |* sp "0.6"
    # lpf (range 300 1000 $ slow 16 $ cosine)
    |* g 0.4
  d2
    $ over ((hurry 3).(|* g 0.7).(+| n "[0 3 2 7 6 3]"))
    $ off "h" ((chop 4))
    $ s "eleas:3"
hush
once $ stutWith 2 "s" (#pan "[0|1]") $ s "eleav:10" # waveloss 0.3 |* g 0.8 # o 8


all $ (# rvb 0.4 0.4)



bpm(98)

do
  d1 silence
  d2
    $ bite 3 4
    $ every 3 (|* sp (9/8))
    $ over (
      (chunk 3 (stutWith 6 "2s" ((|* g 0.95).(|* sp 1.25).(slow 2))))
      .(hurry "[6]")
      .(|* g 0.6)
      .(+| note "[2 5 0 8]").(# pan (slow 4 sine))
    )
    $ loopAt "[h,1]"
    $ s "eleas:5"
    |* g 0.8
hush
all $ (# rvb 0.4 0.4)




bpm 98

do
  d1 silence
  d2
    $ jux (|* sp (5/4))
    $ over ((slow 2).(degradeBy 0.7).(|+ note "[24|28|22|25]").(# shape 0.3).(# pan rand))
    $ over (hurry "h")
    $ over (hurry "q")
    $ s "eleas:2"
    |* sp "0.6"
    # lpf (range 800 2000 $ slow 16 $ cosine)
    # waveloss 100
    # hp 66 0.6

all $ (# rvb 0.95 0.95)

once $ off "s" (#pan rand) $ s "eleav:42" # dis 0.1 # o 8 |* g 0.75

hush
