do
  bpm 111
  let dial numb = once $ off "0.05" ((|+ sp 1.001).(# pan rand)) $ s "eleav" # n numb # ds 0.2 |* g 0.74
  all $ (# rvb 0.5 0.6).(# tanh 1.6).(# boo).(|* g 0.8)

======================================
>>>>>> u-mano u-dito - elea 9003 <<<<<
https://thirdkindrecords.bandcamp.com/
======================================

d1
  $ stut 2 "w" "s"
  $ off "e" ((|+ n 4).rev.(#pan (slow 4 perlin)))
  $ s "dald*8" |* slow 4 ((sine+square)/2)
  -- # lpf 800
  |* g 0.7

hush
