




xfadeIn 1 8
  $ si (# dis 0)
  $ chunk 3 ((|* sp "-2").(jux (|* sp (4/5))))
  $ sh 3 (|* g 0.65)
  $ sh "q" id
  $ s "eleas:30"
  # lp 1700 0.2
  # dis 4.99
  # wl 100

  hush

  -- thanks for watching
  -- have a nice solstice!
  -- see you!
