d1 
  $ every 12 (fast 2)
  $ every 8 (# n "[6,5,8]")
  $ n "[[8 5 ~!3 6], [7 ~ 8]]"
  # s "benjolis"
  # gain 4
  # legato 4
  # runA (perlin)
  # runB (0.92)
  # res (rand / 2)
  # loop (perlin)
  # offset (choose [0.4, 0.7, 0.9])
  # oscA (range 30 1800 $ slow 12 $ cosine)
  # oscB (range 2 125 $ slow 31 $ saw)
  # pan (rand)
  # room 0.5
  # delay 0.34
  # delayt 0.45
  # delayfb 0.78
  # size 0.8
  # crush 1
  # waveloss 100
