do
  bpm 110
  d1
    $ sb "t" (rev)
    $ chunk 3 (stutWith 4 "s" ((|* sp (5/4)).(# pan rand).(|/ legato 1.5).(|+ oc 1).(|* g 0.9)))
    $ layer [
      (hurry "h")
      .(|- oc 1)
      .(# boo)
      ,
      (h 2).(|+ oc 1).(fast 2).(iter 4)
      ,
      id
    ]
    $ n "0 [3 5*2]"
    # s "supercomparator"
    # legato 0.8
    # oc 4
    # rvb "s" "s"
    |* g 0.8
    # del (slow 4 sine) "s" "s"
    # phaser (slow 13 $ sine*10) 0.8

hush
