
d1
    $ stut' 4 0.25 (#speed (slow 8 $ sine))
    $ every 8 (off 0.25 ( 0.125 ~>))
    $ within (0, 1.25) (fast 4)
    $ jux (#up 4)
    $ slow 2
    $ foldEvery[8, 16, 24] (rev)
    $ chop (choose [50, 4, 6, 8, 10, 12]*2)
    $ s "percuo"
    # lpf (range 80 3000 $ slow 2 $ sine )
    # resonance 0.4

hush

d1
    $ n (fromIntegral <$> markovPat 4 3 [
        [0.25, 0.45, 0.3],
        [0.3, 0, 0.7],
        [0.7, 0.3, 0],
        [0.15, 0.39, 0.46]
    ])
    # s "plucking"
    # legato 2
    # room 0.2
    # size 0.8

    # delay 0.34
    # delayt 0.23
    # delayfb 0.33

hush

d2
    $ slow 2
    $ stack [
        struct (binary "19") $ s "kick_oto309",
        struct (binary "79") $ s "hihat" # gain 0.8,
        struct (binary "121") $ s "snare_stein"
    ]
    # nudge 0.4

d2 silence

d1
  $ every 4 (iter 2)
  $ every 6 (shuffle 2)
  $ rarely (brak)
  $ s "[kk kk*2 [~ ss]*2, hh(5,8)]"
  # del' 0.12 0.1 "0 0.5"
  # rvb' "0.2 0.04" "0.41 0.1"
  # distort "0.6"
  # nudge 0.4


d1
  $ s "[kk*2? ss]*2"
  # nudge 0.4

d2
  $ s "benjolis"
  # oscA "1200"
  # oscB "25"
  # runB 0.9
  # runA (range 0 1 $ slow 8 $ sine)
  # runF (range 0 1 $ slow 8 $ cosine)
  # gain 0.9
  # loop 98
  # res 0.8
  # offset 0.1
  # freq 500
  # n 8
  # legato 2

bpm 120

hush
