
d1
    $ stut' 4 0.25 (#speed (slow 8 $ (sine/2) + 0.5))
    $ every 8 (off 0.25 ( 0.125 ~>))
    $ within (0, 1.25) (fast 4)
    $ jux (# up 4)
    $ slow 2
    $ foldEvery[8, 16, 24] (rev)
    $ chop (choose [50, 4, 6, 8, 10, 12]*2)
    $ s "percuo"
    # lp' (range 1000 3000 $ slow 2 $ sine) 0.2
    # hp' 80 0
    # gain 0.50
    # orbit 0

d2
    $ n (fromIntegral <$> markovPat 6 3 [
        [0.25, 0.45, 0.3],
        [0.3, 0, 0.7],
        [0.7, 0.3, 0],
        [0.15, 0.39, 0.46]
    ])
    # s "plucking"
    # legato 2
    # rvb' 0.2 0.8
    # del' 0.34 0.23 0.33
    # gain 0.63
    # orbit 1

d3
    $ slow 2
    $ stack [
        struct (binary "19") $ s "kick_oto309",
        struct (binary "79") $ s "hhat" # gain 0.8,
        struct (binary "121") $ s "snare"
    ]

d3 silence

hush


d1
  $ every 6 (iter 3)
  $ every 4 (linger 0.25)
  $ stack [
    s "[kk*2? ss]*2",
    sometimes (# del' "0.67" "0.34" "0.12") $ s "hh(5,8)"
  ]
  # nudge 0.4
  # rvb' "0.015" "0.1"

d1 silence

d2
  $ s "babbl"
  # n (scale "minor" (irand 2))
  # nudge 0.4
  # legato 2
  # pan perlin

d2 silence

once
  $ n (run 3 * 3.4)
  # s "goeyfx*2"
  # nudge 0.4
  # legato 2

d4
  $ every 4 (|+| n 2)
  $ rarely (stut 4 0.5 0.2)
  $ n (scale "minor" "0 4 5 6")
  # s "blowbotl"
  # gain 0.9
  # nudge 0.4
  # rvb' 0.04 0.2

d4 silence

d5
  $ every 4 (# n (scale "minor" "3 2 0 7 8 ~!3"))
  $ n (scale "minor" "6 8 ~!2 5 4 ~!2 [5 7]*2")
  # s "spook2"
  # octave 3
  # gain 1
  # pan rand
  # nudge 0.4

d5 silence

hush


d1
  $ fast 8
  $ sometimesBy (slow 8 $ sine) (
    (superimpose (
        (slow 4)
        .(|+ n 24)
        .(|* sustain 12)
        .(|* g 0.8)
        .(# o 8)
        .(# hp 57 0.6)
    ))
  )
  $ rarely (|- n 5)
  $ superimpose (
    (|- n 36)
    .(sometimes $ fast 4)
    .(slow 2)
    .(|* sustain 4)
    .(sometimes ("s" <~))
    .(# o 7)
    .(# rvb 0.4 0.6)
    .(|* g 0.8)
  )
  $ sometimes (fast 2)
  $ s "tubes:0" # sustain 0.4 # detune "0 -3 5 2"


d1
  $ sometimesBy (slow 6 $ saw) (|+ oc 1)
  $ sometimesBy (slow 10 $ isaw) (|- oc 1)
  $ s "tubes:0*64"
  # legato ((slow 4 $ perlin+1)*4)
  # pan (fast 2 $ perlin)
  # detune (range "-24" "24" $ slow 16 $ tri)
  # rvb 0.1 0.3

bpm(120)

do
  d1
    $ fast 4
    $ n (scale "minor" "{4 [5|7] 2 8, 0 1 0, 3 7 6}")
    # s "friab"
    # legato (slow 2 $ sine + 1)
    -- # nudge (slow 4 $ sine/2)
    -- # del "h" "t" "t"
  d2
    $ superimpose ((|+ oc 3).(|* g 0.8).(stutWith 5 "s" ((|+ n 3).(|* g 0.9))).(# pan perlin))
    $ (sine ~>)
    $ n "{0 1 0}"
    # s "friab"
    # oc 4
    # lp 3000 (slow 3 $ cosine/2)

all $ juxBy 0.5 (rev.(|- n 3).(slow 2))
all $ id

hush
