

do
  bpm 180
  d1
    -- $ stutWith 4 "1%32" (|+ note 1)
    -- $ every 2 (|+ oc 3)
    -- $ slow 4
    $ every 2 brak
    $ every 3 rev
    $ whenmod 8 6 (while (slow 4 $ binary 111) (|+ note 3))
    $ while (binary (irand 256)) (|+ oc 1)
    $ rarely (stutWith 16 "[1%64|1%32|1%128]" (|* g 0.98))
    $ note "[<-1 0>*2 2*1, 6(7,8,{1 2 3}%7)]"
    # s "midi"
    # midichan 0 # octave 3

d1
  $ note "39*8"
  # s "midi"
  # octave 2
