d1
  $ superimpose (
      (slow 2)
      .(# octave 2)
      .(# distort 0.2)
      .(# rmod' (perlin) (range 10 100 $ slow 12 $ isaw) 0.8)
      .(# pan 0.5)
  )
  $ almostNever ((fast 2).(|+ octave 1))
  $ n (scale "messiaen2" $ shuffle 2 "3 [4 [~|1|3|5]]*2 [7|~] 3*3")
  # s "plastickystrings"
  # ar' 0.001 0.3
  # octave 5
  # legato 8
  # shape 0.2
  # pan rand

d2
  $ every 6 (iter 3)
  $ s "[kk|hhat(4,5)]*2 [~|hhat] [ss|clap*2?] ~"
  # rvb' 0.3 0.7

hush
