
do
  bpm(170)
  d1
    $ juxBy 0.3 (|* speed 0.8)
    $ rarely ((chew 3 4).(stut 4 0.5 0.1))
    $ rarely (
      superimpose (
        (|* speed 27)
        .(plyWith (run 8 * 4) ((# coarse 4).(# pan perlin)))
        .(# rvb 0.1 0.2)
        .(# comb 0.3)
        .(# orbit 6)
      )
    )
    $ striateBy 32 (range 0.93 0.99 $ rand)
    $ s "battles:3"
    # lp (range 1000 5000 $ slow 43 $ (tri+saw)/2) (range 0.0 0.2 $ rand)
    # gain 0.4

xfadeIn 1 16 $ silence

hush
