-- cavvizale

bpm(80)

d1
  $ every 8 (iter 4)
  $ stack [
    juxBy (range "-0.4" "0.4" $ slow 2 $ square) (|- octave 1)
    $ whenmod 12 10 (degradeBy 1)
    $ n "0 0 0 -4 0 0 0 0"
    # s "zonta"
    # octave 5
    # shape 0.3
    ,
    every 4 (zoom (0.25,0.75))
    $ whenmod 12 10 ((fast 2).(#rvb' 0.2 0.6))
    $ sometimes (iter 4)
    $ rarely (ply 2)
    $ s "[kk ss kk*2 ss]"
    # shape 0.4
    ,
    euclid "<8 14 8>" 16
    $ sometimes (stut' 4 0.1 (# lpf 800))
    $ s "hhat"
    # hp' 2500 (range 0.2 0.6 $ rand)
]

d2
  $ whenmod 12 10 (degradeBy 1)
  $ n "<0 0 0 -4>"
  # s "uou"
  # distort 0.6
  # octave 4
  # accelerate "-2"
  # attack 0.01
  # hold 2
  # sustain 2
  # release 0.01
  # rvb' 0.2 0.4
  # gain 0.9
  # lp' 800 0.1

hush
